src/earn/assets/images/arrow-prev.svg

<?xml version="1.0" encoding="UTF-8" standalone="no"?>
<svg width="12px" height="19px" viewBox="0 0 12 19" version="1.1" xmlns="http://www.w3.org/2000/svg" xmlns:xlink="http://www.w3.org/1999/xlink" xmlnsSketch="http://www.bohemiancoding.com/sketch/ns">
    <!-- Generator: Sketch 3.3.3 (12081) - http://www.bohemiancoding.com/sketch -->
    <title>ico-arrow-big-left</title>
    <desc>Created with Sketch.</desc>
    <defs></defs>
    <g id="ASSETS-EXPORT" stroke="none" stroke-width="1" fill="none" fill-rule="evenodd" sketchType="MSPage">
        <g id="Assets" sketchType="MSArtboardGroup" transform="translate(-950.000000, -252.000000)" fill="#A3A3AE">
            <path d="M959.025853,261.50145 L951.137711,253.305117 C950.841671,253.006868 950.841671,252.524146 951.137711,252.223687 C951.433751,251.925438 951.912055,251.925438 952.208095,252.223687 L960.857325,260.959078 C961.153365,261.258432 961.153365,261.742258 960.857325,262.040508 L952.208095,270.775899 C951.912055,271.075253 951.433751,271.074148 951.137711,270.775899 C950.841671,270.478754 950.841671,269.994927 951.137711,269.694469 L959.025853,261.50145 L959.025853,261.50145 Z" id="ico-arrow-big-left" sketchType="MSShapeGroup" transform="translate(955.997518, 261.500000) scale(-1, 1) translate(-955.997518, -261.500000) "></path>
        </g>
    </g>
</svg>

<svg xmlns="http://www.w3.org/2000/svg" width="12" height="19"><g id="ASSETS-EXPORT" fill="none" fill-rule="evenodd" stroke="none" stroke-width="1"><g id="Assets" fill="#A3A3AE" transform="translate(-950 -252)"><path id="ico-arrow-big-left" d="m959.026 261.501-7.888-8.196a.77.77 0 0 1 0-1.081.752.752 0 0 1 1.07 0l8.65 8.735a.77.77 0 0 1 0 1.082l-8.65 8.735a.751.751 0 0 1-1.07 0 .77.77 0 0 1 0-1.082l7.888-8.193Z" transform="matrix(-1 0 0 1 1911.995 0)"/></g></g></svg>
